public/svg/business-report.svg

<svg height="29" viewBox="0 0 31 29" width="31" xmlns="http://www.w3.org/2000/svg" xmlns:xlink="http://www.w3.org/1999/xlink"><linearGradient id="a" x1="50%" x2="50%" y1="0%" y2="100%"><stop offset="0" stop-color="#4db8ec"/><stop offset="1" stop-color="#5c6fde"/></linearGradient><g fill="url(#a)" stroke="#fff" stroke-width=".3" transform="translate(.686192 1)"><path d="m26.7649794 0h-23.90234374c-1.40542383 0-2.54882813 1.14026987-2.54882813 2.541841v16.4937239c0 1.4015711 1.1434043 2.541841 2.54882813 2.541841h8.22948634l-.6230469 3.7280334h-1.09276757c-.46921094 0-.84960937.3793557-.84960937.8472804s.38039843.8472803.84960937.8472803h10.87499997c.469211 0 .8496094-.3793556.8496094-.8472803s-.3803984-.8472804-.8496094-.8472804h-1.0927675l-.6230469-3.7280334h8.2294863c1.4054238 0 2.5488281-1.1402699 2.5488281-2.541841v-16.4937239c0-1.40157113-1.1434043-2.541841-2.5488281-2.541841zm-9.3291074 25.3054393h-5.2441289l.6230469-3.7280334h3.9980351zm10.1787168-6.2698744c0 .4671903-.3811348.8472803-.8496094.8472803-.606168 0-23.19133398 0-23.90234374 0-.46847461 0-.84960938-.38009-.84960938-.8472803v-16.4937239c0-.46719037.38113477-.84728033.84960938-.84728033h11.10156254v.96025105c0 .46792468.3803984.84728033.8496093.84728033.469211 0 .8496094-.37935565.8496094-.84728033v-.96025105h11.1015625c.4684746 0 .8496094.38008996.8496094.84728033z"/><path d="m12.4593772 10.5578947c-.4718735 0-.8544304.3888211-.8544304.8684211v2.8368421h-1.93670889v-5.61578948c0-.4796-.38255696-.86842105-.85443038-.86842105s-.85443038.38882105-.85443038.86842105v5.61578948h-1.93670886v-8.39473685c0-.4796-.38255696-.86842105-.85443038-.86842105s-.85443038.38882105-.85443038.86842105v9.26315785c0 .4796.38255696.8684211.85443038.8684211h7.29113929c.4718734 0 .8544303-.3888211.8544303-.8684211v-3.7052631c0-.4796-.3825569-.8684211-.8544303-.8684211z"/><path d="m20.3138075 6c-2.7570115 0-5 2.24298851-5 5 0 1.3578736.5443678 2.5908621 1.4260345 3.4928161.0395977.0452299.0377012.043046.081092.0810919.901954.8816667 2.1349425 1.426092 3.4928735 1.426092 2.7570115 0 5-2.2429885 5-5 0-2.75701149-2.2429885-5-5-5zm3.1599426 4.137931h-2.2978736v-2.29787353c1.1144253.30436782 1.9935057 1.18344828 2.2978736 2.29787353zm-4.0220115-2.29787353v2.80287353l-1.981092 1.981092c-1.0658046-1.8585632-.0756322-4.22218392 1.981092-4.78396553zm-.7619541 6.00310343 1.981092-1.9810919h2.8028736c-.5626437 2.0597126-2.9279311 3.0454023-4.7839656 1.9810919z"/></g></svg>

<?xml version="1.0" encoding="UTF-8"?>
<svg width="31px" height="29px" viewBox="0 0 31 29" version="1.1" xmlns="http://www.w3.org/2000/svg" xmlns:xlink="http://www.w3.org/1999/xlink">
    <title>business-report</title>
    <defs>
        <linearGradient x1="50%" y1="0%" x2="50%" y2="100%" id="linearGradient-1">
            <stop stop-color="#4DB8EC" offset="0%"></stop>
            <stop stop-color="#5C6FDE" offset="100%"></stop>
        </linearGradient>
        <linearGradient x1="50%" y1="0%" x2="50%" y2="100%" id="linearGradient-2">
            <stop stop-color="#4DB8EC" offset="0%"></stop>
            <stop stop-color="#5C6FDE" offset="100%"></stop>
        </linearGradient>
        <linearGradient x1="50%" y1="0%" x2="50%" y2="100%" id="linearGradient-3">
            <stop stop-color="#4DB8EC" offset="0%"></stop>
            <stop stop-color="#5C6FDE" offset="100%"></stop>
        </linearGradient>
    </defs>
    <g id="Page-1" stroke="none" stroke-width="1" fill="none" fill-rule="evenodd">
        <g id="Dashboard-user-desktop" transform="translate(-573.000000, -112.000000)" fill-rule="nonzero" stroke="#FFFFFF" stroke-width="0.3">
            <g id="business-report" transform="translate(573.686192, 113.000000)">
                <path d="M26.7649794,0 L2.86263566,0 C1.45721183,0 0.313807531,1.14026987 0.313807531,2.541841 L0.313807531,19.0355649 C0.313807531,20.437136 1.45721183,21.5774059 2.86263566,21.5774059 L11.092122,21.5774059 L10.4690751,25.3054393 L9.37630753,25.3054393 C8.90709659,25.3054393 8.52669816,25.684795 8.52669816,26.1527197 C8.52669816,26.6206444 8.90709659,27 9.37630753,27 L20.2513075,27 C20.7205185,27 21.1009169,26.6206444 21.1009169,26.1527197 C21.1009169,25.684795 20.7205185,25.3054393 20.2513075,25.3054393 L19.15854,25.3054393 L18.5354931,21.5774059 L26.7649794,21.5774059 C28.1704032,21.5774059 29.3138075,20.437136 29.3138075,19.0355649 L29.3138075,2.541841 C29.3138075,1.14026987 28.1704032,0 26.7649794,0 Z M17.435872,25.3054393 L12.1917431,25.3054393 L12.81479,21.5774059 L16.8128251,21.5774059 L17.435872,25.3054393 Z M27.6145888,19.0355649 C27.6145888,19.5027552 27.233454,19.8828452 26.7649794,19.8828452 C26.1588114,19.8828452 3.57364542,19.8828452 2.86263566,19.8828452 C2.39416105,19.8828452 2.01302628,19.5027552 2.01302628,19.0355649 L2.01302628,2.541841 C2.01302628,2.07465063 2.39416105,1.69456067 2.86263566,1.69456067 L13.9641982,1.69456067 L13.9641982,2.65481172 C13.9641982,3.1227364 14.3445966,3.50209205 14.8138075,3.50209205 C15.2830185,3.50209205 15.6634169,3.1227364 15.6634169,2.65481172 L15.6634169,1.69456067 L26.7649794,1.69456067 C27.233454,1.69456067 27.6145888,2.07465063 27.6145888,2.541841 L27.6145888,19.0355649 Z" id="Shape" fill="url(#linearGradient-1)"></path>
                <path d="M12.4593772,10.5578947 C11.9875037,10.5578947 11.6049468,10.9467158 11.6049468,11.4263158 L11.6049468,14.2631579 L9.66823791,14.2631579 L9.66823791,8.64736842 C9.66823791,8.16776842 9.28568095,7.77894737 8.81380753,7.77894737 C8.34193411,7.77894737 7.95937715,8.16776842 7.95937715,8.64736842 L7.95937715,14.2631579 L6.02266829,14.2631579 L6.02266829,5.86842105 C6.02266829,5.38882105 5.64011133,5 5.16823791,5 C4.69636449,5 4.31380753,5.38882105 4.31380753,5.86842105 L4.31380753,15.1315789 C4.31380753,15.6111789 4.69636449,16 5.16823791,16 L12.4593772,16 C12.9312506,16 13.3138075,15.6111789 13.3138075,15.1315789 L13.3138075,11.4263158 C13.3138075,10.9467158 12.9312506,10.5578947 12.4593772,10.5578947 Z" id="Path" fill="url(#linearGradient-2)"></path>
                <path d="M20.3138075,6 C17.556796,6 15.3138075,8.24298851 15.3138075,11 C15.3138075,12.3578736 15.8581753,13.5908621 16.739842,14.4928161 C16.7794397,14.538046 16.7775432,14.5358621 16.820934,14.573908 C17.722888,15.4555747 18.9558765,16 20.3138075,16 C23.070819,16 25.3138075,13.7570115 25.3138075,11 C25.3138075,8.24298851 23.070819,6 20.3138075,6 Z M23.4737501,10.137931 L21.1758765,10.137931 L21.1758765,7.84005747 C22.2903018,8.14442529 23.1693822,9.02350575 23.4737501,10.137931 Z M19.4517386,7.84005747 L19.4517386,10.642931 L17.4706466,12.624023 C16.404842,10.7654598 17.3950144,8.40183908 19.4517386,7.84005747 Z M18.6897845,13.8431609 L20.6708765,11.862069 L23.4737501,11.862069 C22.9111064,13.9217816 20.545819,14.9074713 18.6897845,13.8431609 Z" id="Shape" fill="url(#linearGradient-3)"></path>
            </g>
        </g>
    </g>
</svg>
